frontend/public/svg/interface/mail-open.svg

<svg width="159" height="156" viewBox="0 0 159 156" fill="none" xmlns="http://www.w3.org/2000/svg">
<g clip-path="url(#clip0)">
<path d="M1.37712 108.343C1.37712 99.3338 1.20687 90.3196 1.43774 81.3165C1.588 75.4489 2.61337 69.6002 2.68302 63.7363C2.72365 60.2984 4.17338 58.1195 6.51049 56.0779C18.0909 45.9639 29.623 35.793 41.2234 25.7024C47.0649 20.6213 52.8658 15.4707 58.9742 10.7296C62.7056 7.83317 66.9195 5.53523 71.0339 3.18093C78.338 -0.997923 85.4255 -0.332438 92.6683 3.86266C101.11 8.69975 109.169 14.1848 116.775 20.2701C124.856 26.7941 132.591 33.7561 140.421 40.5915C144.585 44.2269 148.442 48.2472 152.786 51.6415C157.089 55.0033 158.525 59.355 158.429 64.4523C158.261 73.4476 157.901 82.4397 157.704 91.4343C157.435 103.654 157.386 115.88 156.95 128.094C156.771 132.754 156.159 137.387 155.12 141.931C153.407 149.471 150.057 152.986 141.219 153.803C133.446 154.518 125.588 154.38 117.766 154.485C109.269 154.599 100.766 154.413 92.2717 154.631C84.9011 154.82 77.5416 155.411 70.1749 155.782C68.1925 155.883 66.203 155.855 64.2166 155.855C52.4066 155.855 40.5953 155.97 28.7885 155.78C24.0584 155.632 19.3417 155.192 14.6652 154.461C8.94113 153.652 4.80669 150.522 3.1809 144.792C2.15575 141.519 1.53495 138.13 1.33261 134.704C1.07465 125.925 1.24684 117.132 1.24684 108.346L1.37712 108.343ZM76.7864 110.104C101.744 95.6093 123.368 76.5858 145.989 59.618C144.09 57.4424 142.534 55.4353 140.753 53.6569C131.42 44.1967 121.488 35.358 111.018 27.1967C103.385 21.3389 95.611 15.7126 87.1448 11.0482C82.9374 8.7303 79.0887 8.86225 75.2354 10.9682C71.1145 13.0971 67.189 15.5911 63.5066 18.421C54.6534 25.5769 46.075 33.0796 37.3934 40.4506C30.6507 46.1758 23.9157 51.9093 17.1881 57.6514C15.8802 58.7688 14.6427 59.9684 13.4309 61.0766C18.5508 68.9099 59.8436 100.807 76.7864 110.104ZM108.684 100.447C106.556 101.908 104.76 103.192 102.915 104.398C95.5129 109.234 88.1037 114.059 80.6867 118.872C78.507 120.295 76.3421 120.985 73.9308 119.347C67.349 114.876 60.7511 110.429 54.1375 106.005C52.0642 104.616 50.3462 102.653 47.6131 101.728C43.6476 106.415 39.6808 111.009 35.8198 115.695C31.8782 120.481 27.8934 125.243 24.2052 130.224C20.6357 135.045 16.402 139.393 13.062 145.087C15.1754 145.613 16.7244 146.233 18.3096 146.352C25.3351 146.872 32.3683 147.583 39.4029 147.612C51.1955 147.661 62.99 147.244 74.7833 147.022C75.0039 147.018 75.2244 147.002 75.445 146.992C84.1344 146.597 92.8199 145.999 101.513 145.856C113.98 145.652 126.453 145.796 138.922 145.748C140.389 145.743 141.997 146.027 143.366 144.682L108.684 100.447ZM115.34 95.3363C126.409 108.282 135.751 121.986 147.692 134.553C148.295 112.296 148.874 90.9001 149.472 68.8599L115.34 95.3363ZM10.0633 70.2652C10.0633 71.5359 10.0458 72.6338 10.0633 73.7309C10.2477 83.828 10.4973 93.9239 10.6101 104.021C10.7107 113.019 10.6559 122.019 10.6882 131.017C10.6882 131.944 10.8171 132.869 10.9023 133.981L40.5321 95.7178L10.0633 70.2652Z" fill="black"/>
</g>
<defs>
<clipPath id="clip0">
<rect width="158" height="156" fill="white" transform="translate(0.777344)"/>
</clipPath>
</defs>
</svg>

<svg xmlns="http://www.w3.org/2000/svg" width="159" height="156" fill="none" viewBox="0 0 159 156"><g clip-path="url(#a)"><path fill="#000" d="M1.377 108.343c0-9.01-.17-18.023.06-27.026.151-5.868 1.176-11.717 1.246-17.58.04-3.439 1.49-5.617 3.827-7.66 11.58-10.113 23.113-20.284 34.713-30.375 5.842-5.08 11.643-10.231 17.751-14.972 3.732-2.897 7.946-5.195 12.06-7.55 7.304-4.178 14.391-3.512 21.634.683a189 189 0 0 1 24.107 16.407c8.081 6.524 15.816 13.486 23.646 20.322 4.164 3.635 8.021 7.655 12.365 11.05 4.303 3.361 5.739 7.713 5.643 12.81-.168 8.996-.528 17.988-.725 26.982-.269 12.22-.318 24.446-.754 36.66a75 75 0 0 1-1.83 13.837c-1.713 7.54-5.063 11.055-13.901 11.872-7.773.715-15.631.577-23.453.682-8.497.114-17-.072-25.494.146-7.37.189-14.73.78-22.097 1.151-1.983.101-3.972.073-5.958.073-11.81 0-23.622.115-35.428-.075a115 115 0 0 1-14.124-1.319c-5.724-.809-9.858-3.939-11.484-9.669a42 42 0 0 1-1.848-10.088c-.258-8.779-.086-17.572-.086-26.358zm75.41 1.761c24.957-14.495 46.581-33.518 69.202-50.486-1.899-2.176-3.455-4.183-5.236-5.961a306 306 0 0 0-29.735-26.46c-7.633-5.858-15.407-11.484-23.873-16.149-4.208-2.318-8.056-2.186-11.91-.08a78 78 0 0 0-11.728 7.453c-8.854 7.156-17.432 14.659-26.114 22.03a10359 10359 0 0 0-20.205 17.2c-1.308 1.118-2.545 2.317-3.757 3.426 5.12 7.833 46.413 39.73 63.355 49.027m31.897-9.657c-2.128 1.461-3.924 2.745-5.769 3.951a8558 8558 0 0 1-22.228 14.474c-2.18 1.423-4.345 2.113-6.756.475a3347 3347 0 0 0-19.793-13.342c-2.074-1.389-3.792-3.352-6.525-4.277-3.965 4.687-7.932 9.281-11.793 13.967-3.942 4.786-7.927 9.548-11.615 14.529-3.57 4.821-7.803 9.169-11.143 14.863 2.113.526 3.662 1.146 5.248 1.265 7.025.52 14.058 1.231 21.093 1.26 11.793.049 23.587-.368 35.38-.59.22-.004.441-.02.662-.03 8.69-.395 17.375-.993 26.068-1.136 12.467-.204 24.94-.06 37.409-.108 1.467-.005 3.075.279 4.444-1.066zm6.656-5.11c11.069 12.945 20.411 26.649 32.352 39.216l1.78-65.693zM10.063 70.264c0 1.27-.017 2.369 0 3.466.185 10.097.434 20.193.547 30.29.1 8.998.046 17.998.078 26.996 0 .927.13 1.852.214 2.964l29.63-38.263z"/></g><defs><clipPath id="a"><path fill="#fff" d="M.777 0h158v156h-158z"/></clipPath></defs></svg>
